src/base/static/base/assets/include/rs-plugin/demos/assets/svg/editor/ic_format_indent_increase_24px.svg

<svg height="24" viewBox="0 0 24 24" width="24" xmlns="http://www.w3.org/2000/svg"><path d="m3 21h18v-2h-18zm0-13v8l4-4zm8 9h10v-2h-10zm-8-14v2h18v-2zm8 6h10v-2h-10zm0 4h10v-2h-10z"/></svg>

<svg xmlns="http://www.w3.org/2000/svg" width="24" height="24" viewBox="0 0 24 24"><path d="M3 21h18v-2H3v2zM3 8v8l4-4-4-4zm8 9h10v-2H11v2zM3 3v2h18V3H3zm8 6h10V7H11v2zm0 4h10v-2H11v2z"/></svg>
